u/stations/jre/img/005.svg

<?xml version="1.0" encoding="UTF-8" standalone="no"?>
<!-- Created with Inkscape (http://www.inkscape.org/) -->

<svg
   width="70"
   height="30"
   version="1.1"
   viewBox="0 0 70 30"
   xml:space="preserve"
   id="svg4"
   sodipodi:docname="05.svg"
   inkscape:version="1.4 (e7c3feb1, 2024-10-09)"
   xmlns:inkscape="http://www.inkscape.org/namespaces/inkscape"
   xmlns:sodipodi="http://sodipodi.sourceforge.net/DTD/sodipodi-0.dtd"
   xmlns="http://www.w3.org/2000/svg"
   xmlns:svg="http://www.w3.org/2000/svg"><defs
     id="defs4" /><sodipodi:namedview
     id="namedview4"
     pagecolor="#ffffff"
     bordercolor="#000000"
     borderopacity="0.25"
     inkscape:showpageshadow="2"
     inkscape:pageopacity="0.0"
     inkscape:pagecheckerboard="0"
     inkscape:deskcolor="#d1d1d1"
     inkscape:zoom="3.867674"
     inkscape:cx="36.19747"
     inkscape:cy="19.00367"
     inkscape:window-width="1440"
     inkscape:window-height="724"
     inkscape:window-x="0"
     inkscape:window-y="25"
     inkscape:window-maximized="0"
     inkscape:current-layer="svg4" /><g
     fill="#fff"
     id="g3"><path
       d="m35.9 15 6.1-8.72 6.1 8.72-6.1 8.72z"
       style="paint-order:fill markers stroke"
       id="path2" /><path
       d="m42 5.41-6.71 9.59 6.71 9.59 6.71-9.59z"
       style="paint-order:fill markers stroke"
       id="path3" /></g><rect
     style="fill:#0171c5;stroke-width:10;paint-order:fill markers stroke;fill-opacity:1"
     id="rect4"
     width="10"
     height="30"
     x="30"
     y="0" /><path
     style="paint-order:fill markers stroke;fill:#03c18a;fill-opacity:1"
     d="M 44,0 V 2.427734 L 16,22.42773 V 30 H 26 V 27.57227 L 54,7.572266 V 0 Z"
     id="path8" /></svg>

<svg xmlns="http://www.w3.org/2000/svg" xml:space="preserve" width="70" height="30"><g fill="#fff"><path d="M35.9 15 42 6.28 48.1 15 42 23.72z" style="paint-order:fill markers stroke"/><path d="M42 5.41 35.29 15 42 24.59 48.71 15z" style="paint-order:fill markers stroke"/></g><path d="M30 0h10v30H30z" style="fill:#0171c5;stroke-width:10;paint-order:fill markers stroke;fill-opacity:1"/><path d="M44 0v2.428l-28 20V30h10v-2.428l28-20V0Z" style="paint-order:fill markers stroke;fill:#03c18a;fill-opacity:1"/></svg>
